X: 19344
T: Jack Riordan's
R: reel
M: 4/4
K: Dmajor
dedB AGFD|EFGA BE A/B/c|dedB AGFD|E/F/G AG FDDA|
dedB AGFD|EFGA B~E3|dedB AGFD|E/F/G AG FDDf||
edcB Afed|cA B/c/d efgf|edcB EFGA|BGEG FDDf|
edcB A2 ed|cA B/c/d efgf|edcA gfed|edcB Agfe||

